!!!OTL: WOR IS JUWE VADER
!!!ARE: Europa, Mitteleuropa, Deutschland, Sachsen
!!!SCT: E0863
!!!YEM: Copyright 1995, estate of Helmut Schaffrath.
**kern
*ICvox
*Ivox
*M4/4
*k[]
*C:
{8cc
8cc
=1
4cc
4b
4a
4g
=2
4cc
4cc
4g}
{4g
=3
4a
4a
4g
4g
=4
4a
4a
2g}
=5
{4f
4f
4g
4f
=6
4e
4d
4c}
{4cc
=7
4cc
4cc
4g
4g
=8
4a
4a
4g}
{4g
=9
4cc
4cc
4g
4g
=10
4a
4a
2g}
=11
{4f
4f
4g
4f
=12
4e
4d
4c}
{4cc
=13
4cc
4cc
2b
=14
4a
4a
2g
=15
4a
4a
4g
4g}
=16
{4f
4f
4g
4f
=17
4e
4d
2c}
=18
{4f
4f
4g
4f
=19
4e
4d
2c}
=20
{4f
4f
4g
4f
=21
4e
4d
2c}
=22
{4f
4f
4g
4f
=23
4e
4d
2c}
=24
{4cc
4b
4a
4g
=25
2cc
4g
4g}
=26
{4a
4a
4g
4g
=27
4a
4a
4g
4g}
=28
{4a
4a
4d
4d
=29
2.e}
==
!!!AGN: Hochzeits -, Ehestands - Lied
!!!ONB: ESAC (Essen Associative Code) Database: ERK2
!!!AMT: simple quadruple
!!!AIN: vox
!!!EED: Helmut Schaffrath
!!!EEV: 1.0
*-
